build/redact/ListBulletedOutline.svg

<svg xmlns="http://www.w3.org/2000/svg" fill="none" viewBox="0 0 24 24" focusable="false"><path d="M0 0H24V24H0z"/><path fill="#74767B" fill-rule="evenodd" d="M4.6499 5.75C4.09762 5.75 3.6499 6.19772 3.6499 6.75C3.6499 7.30228 4.09762 7.75 4.6499 7.75C5.20219 7.75 5.6499 7.30228 5.6499 6.75C5.6499 6.19772 5.20219 5.75 4.6499 5.75ZM8.64414 6.10001C8.28516 6.10001 7.99414 6.39102 7.99414 6.75001C7.99414 7.10899 8.28516 7.40001 8.64414 7.40001L19.3502 7.40001C19.7092 7.40001 20.0002 7.10899 20.0002 6.75001C20.0002 6.39102 19.7092 6.10001 19.3502 6.10001L8.64414 6.10001ZM8.64414 11.4C8.28516 11.4 7.99414 11.691 7.99414 12.05C7.99414 12.409 8.28516 12.7 8.64414 12.7L19.3502 12.7C19.7092 12.7 20.0002 12.409 20.0002 12.05C20.0002 11.691 19.7092 11.4 19.3502 11.4L8.64414 11.4ZM7.99414 17.35C7.99414 16.991 8.28516 16.7 8.64414 16.7L19.3502 16.7C19.7092 16.7 20.0002 16.991 20.0002 17.35C20.0002 17.709 19.7092 18 19.3502 18L8.64414 18C8.28516 18 7.99414 17.709 7.99414 17.35ZM3.6499 12C3.6499 11.4477 4.09762 11 4.6499 11C5.20219 11 5.6499 11.4477 5.6499 12C5.6499 12.5523 5.20219 13 4.6499 13C4.09762 13 3.6499 12.5523 3.6499 12ZM4.6499 16.35C4.09762 16.35 3.6499 16.7977 3.6499 17.35C3.6499 17.9023 4.09762 18.35 4.6499 18.35C5.20219 18.35 5.6499 17.9023 5.6499 17.35C5.6499 16.7977 5.20219 16.35 4.6499 16.35Z"/></svg>

<svg xmlns="http://www.w3.org/2000/svg" fill="none" viewBox="0 0 24 24" focusable="false"><path fill="#74767B" fill-rule="evenodd" d="M4.64 5.75c-.55 0-1 .44-1 1 0 .55.45 1 1 1 .56 0 1-.45 1-1 0-.56-.44-1-1-1m4 .35c-.36 0-.65.29-.65.65 0 .35.29.65.65.65h10.71c.35 0 .65-.3.65-.65 0-.36-.3-.65-.65-.65zm0 5.3c-.36 0-.65.29-.65.65 0 .35.29.65.65.65h10.71c.35 0 .65-.3.65-.65 0-.36-.3-.65-.65-.65zm-.65 5.95c0-.36.29-.65.65-.65h10.71c.35 0 .65.29.65.65 0 .35-.3.65-.65.65H8.64c-.36 0-.65-.3-.65-.65M3.64 12c0-.56.45-1 1-1 .56 0 1 .44 1 1 0 .55-.44 1-1 1-.55 0-1-.45-1-1m1 4.35c-.55 0-1 .44-1 1 0 .55.45 1 1 1 .56 0 1-.45 1-1 0-.56-.44-1-1-1"/></svg>
